X: 3
T: John McGrath's
R: reel
M: 4/4
L: 1/8
K: Dmaj
d~F3 AGFE|DEFD E~B3|A~F3 BFAF|~E3D EFGA|
d~F3 AGFE|DEFD E~B3|A~F3 BFAF|EGFE D3z|
d~F3 AGFE|Dz FD E~B3|A~F3 Bz AF|~E3D EFGA|
d3e c3d|~B3d AGFE|Dz FA BFAF|EGFE D3z||
~d2fd Adfd|~B3d AGFE|Dz FA BFAF|~E3D EFGA|
dz fd Adfd|~B3d AGFE|DEFA BFAF|EGFE D3z|
~d2fd Adfd|B~G3 AGFE|Dz FA BFAF|EGFD EFde|
fdba fded|~B3d AGFE|Dz FA BFAF|EGFE D3z||

